X: 19
T: Outside of the Castle.
%C: Mr. Gray
%R: slip-jig
B: Mr. Gray "24 Country Dances for the Year 1805" p.10 #1
S: http://folkopedia.efdss.org/images/9/92/ThompsGray_24_1805.PDF  2013-12-2
Z: 2013 John Chambers <jc:trillian.mit.edu>
M: 9/8
L: 1/8
K: G
|:\
g2d Bdc BAG | g2e efg afd |\
g2d Bdc BAG | AcB AGF | G3 :|
|:\
A3 ABc dBG | E2e efg afd |\
g2d Bdc BAG | Aed cBA G3 :|
% - - - - - - - - - - - - - - - - - - - - - - - - -
%%begintext align
%% Hey contrary sides Hey your own sides
%% lead down the mid: up again, hands 6 round.
%%endtext

%%sep 1 1 500
%%sep 1 1 500
